!!!COM: Palestrina, Giovanni Perluigi da
!!!OPR: Eripe me de inimicis
!!!OTL: Sanctus
**kern	**kern	**kern	**kern	**kern
*Ibass	*Itenor	*Itenor	*Icalto	*Icant
!Bassus	!Tenor 2	!Tenor 1	!Altus	!Cantus
*clefF4	*clefGv2	*clefGv2	*clefG2	*clefG2
*k[]	*k[]	*k[]	*k[]	*k[]
*D:dor	*D:dor	*D:dor	*D:dor	*D:dor
*M4/2	*M4/2	*M4/2	*M4/2	*M4/2
=1	=1	=1	=1	=1
0r	0r	0A	0r	0r
=2	=2	=2	=2	=2
0r	0r	1d	0r	0a
.	.	2r	.	.
.	.	2d	.	.
=3	=3	=3	=3	=3
0r	0r	2f	0d	1dd
.	.	2d	.	.
.	.	2.f	.	2r
.	.	.	.	2dd
.	.	4e	.	.
=4	=4	=4	=4	=4
0r	0r	1.d	1a	2ff
.	.	.	.	2dd
.	.	.	2r	2ff
.	.	4c	2a	4ee
.	.	4B	.	4dd
=5	=5	=5	=5	=5
0r	0r	4A	2cc	1ee
.	.	4B	.	.
.	.	4c	2a	.
.	.	4d	.	.
.	.	2e	2.cc	2ee
.	.	[2f	.	2a
.	.	.	4b-	.
=6	=6	=6	=6	=6
0r	1r	4f]	4a	2cc
.	.	4e	4g	.
.	.	2.a	2f	2a
.	[1A	.	2e	2cc
.	.	4g	.	.
.	.	2f	[2d	2dd
=7	=7	=7	=7	=7
1r	1A]	2e	2d]	1ee
.	.	2.a	2c#	.
[1D	1d	.	4d	2ff
.	.	4g	4e	.
.	.	4f	4f	2dd
.	.	4e	4g	.
=8	=8	=8	=8	=8
1D]	2r	4d	2a	1ff
.	.	4c#	.	.
.	2A	2d	1a	.
1A	2c	1e	.	1ee
.	2A	.	[2cc	.
=9	=9	=9	=9	=9
2r	2.c	0A	2cc]	1r
2A	.	.	1a	.
.	4d	.	.	.
2c	2e	.	.	[1a
2A	2f	.	4cc	.
.	.	.	4b-	.
=10	=10	=10	=10	=10
2c	2e	2r	4a	1a]
.	.	.	4g	.
2d	1a	2d	4f	.
.	.	.	4e	.
1B-	.	2f	1d	1dd
.	2g	[2d	.	.
=11	=11	=11	=11	=11
2.A	1a	4d]	2r	2r
.	.	8c	.	.
.	.	8B	.	.
.	.	2c#	1a	2ee
4G	.	.	.	.
2F	1r	2d	.	2ff
2G	.	[2d	2b-	2dd
=12	=12	=12	=12	=12
1D	0A	2d]	[0a	2.ff
.	.	1f	.	.
.	.	.	.	4ee
1r	.	.	.	4cc
.	.	.	.	4dd
.	.	2e	.	[2ee
=13	=13	=13	=13	=13
0D	1d	0f	1a]	2ee]
.	.	.	.	4dd
.	.	.	.	4cc#
.	2r	.	1a	1dd
.	[2A	.	.	.
=14	=14	=14	=14	=14
2A	4A]	1e	2cc	[0ee
.	4B	.	.	.
2A	4c	.	2.a	.
.	4d	.	.	.
2c	1e	2r	.	.
.	.	.	4g	.
[2A	.	2e	2a	.
=15	=15	=15	=15	=15
4A]	4A	2.c	2e	0ee]
4G#	4B	.	.	.
2A	4c	.	1a	.
.	4A	4d	.	.
1E	1B	[1e	.	.
.	.	.	2g#	.
=16	=16	=16	=16	=16
1A	2c	2e]	1a	2r
.	2A	2a	.	2cc
1r	2B	2g	1r	2dd
.	2c	2e	.	2ee
=17	=17	=17	=17	=17
2r	1d	2.f	2r	2a
2d	.	.	2f	2ff
.	.	4d	.	.
2c	1r	2e	2g	2ee
2A	.	[2f	2a	2cc
=18	=18	=18	=18	=18
1B-	1r	2f]	4d	1dd
.	.	.	4e	.
.	.	2d	4f	.
.	.	.	4g	.
1A	2r	2e	4a	2cc
.	.	.	4b	.
.	2c	[2a	2cc	2ee
=19	=19	=19	=19	=19
1r	2d	2a]	1b	2dd
.	2e	2g	.	2b
2r	1A	2e	2r	2.cc
2F	.	2f	2a	.
.	.	.	.	4a
=20	=20	=20	=20	=20
2G	1r	1e	2g	2b
2A	.	.	2e	2cc#
1D	2r	2r	4f	4dd
.	.	.	4g	4ee
.	2f	2d	4a	4ff
.	.	.	4b	4dd
=21	=21	=21	=21	=21
1r	2g	2c	1cc	2ee
.	2a	2A	.	2.ff
2r	2d	2B-	2f	.
.	.	.	.	4ee
2F	2f	2A	2a	[2dd
=22	=22	=22	=22	=22
2G	1e	2r	2g	2dd]
2A	.	2.a	2e	2cc#
2D	2d	.	1f	2dd
.	.	4g	.	.
2d	2f	2f	.	2a
=23	=23	=23	=23	=23
2c	2g	2e	2r	1cc
2A	2a	1f	2c	.
1B-	1d	.	2f	1dd
.	.	4e	2g	.
.	.	4d	.	.
=24	=24	=24	=24	=24
0A	1r	1e	2a	2cc
.	.	.	2.cc	2.ee
.	2.e	1r	.	.
.	.	.	4b	4dd
.	.	.	2a	2cc
.	4e	.	.	.
=25	=25	=25	=25	=25
0r	2e	1r	2g#	2b
.	2f	.	1a	2a
.	2d	2r	.	1b
.	4e	[2e	2g#	.
.	4d	.	.	.
=26	=26	=26	=26	=26
2.A	4c	4e]	1a	1a
.	4A	4e	.	.
.	1a	2e	.	.
4A	.	.	.	.
2A	.	2f	1r	1r
2B-	2f	2d	.	.
=27	=27	=27	=27	=27
2G	2g	1e	1r	2.ee
1A	4c	.	.	.
.	4d	.	.	4ee
.	4e	1A	2.a	2ee
.	4c	.	.	.
2D	2d	.	.	[2ff
.	.	.	4a	.
=28	=28	=28	=28	=28
2F	2A	1d	2a	2ff]
2G	2.d	.	2b-	2dd
1E	.	2r	1g	2ee
.	4c#	.	.	.
.	4c#	2e	.	2gg
.	4B	.	.	.
=29	=29	=29	=29	=29
0D	1d	2.f	1.a	2.ff
.	.	4g	.	4ee
.	2.A	1a	.	2dd
.	.	.	2d	[2ff
.	4A	.	.	.
=30	=30	=30	=30	=30
0r	2A	0r	2.f	4ff]
.	.	.	.	4ee
.	2B-	.	.	1dd
.	.	.	4g	.
.	2G	.	1e	.
.	[2A	.	.	4cc
.	.	.	.	4b
=31	=31	=31	=31	=31
0r	4A]	2.e	2r	4cc
.	4B	.	.	4dd
.	1c	.	2A	2.ee
.	.	4e	.	.
.	.	2e	2A	.
.	.	.	.	4dd
.	2A	[2f	[2a	4cc
.	.	.	.	4b
=32	=32	=32	=32	=32
0r	2d	2f]	4a]	2a
.	.	.	8g	.
.	.	.	8f	.
.	2B-	2d	2g	1dd
.	1A	2e	1a	.
.	.	2f	.	[2cc
=33	=33	=33	=33	=33
2r	0r	2.g	1e	2cc]
2.E	.	.	.	4b
.	.	4f	.	4a
.	.	2.e	1g	4b
4E	.	.	.	4cc
2E	.	.	.	[2b
.	.	4d	.	.
=34	=34	=34	=34	=34
2F	1r	2c	1f	4b]
.	.	.	.	4a
2D	.	2d	.	1a
1E	2r	1B	1e	.
.	[2e	.	.	2g#
=35	=35	=35	=35	=35
1A	4e]	1c#	2r	1a
.	4e	.	.	.
.	2e	.	2.a	.
2D	1f	1d	.	1r
.	.	.	4a	.
2d	.	.	2a	.
=36	=36	=36	=36	=36
2G	2d	2r	2b-	1r
2c	1e	2.c	2g	.
1A	.	.	2a	2.ee
.	.	4A	.	.
.	2A	2a	[2cc	.
.	.	.	.	4ee
=37	=37	=37	=37	=37
0r	2c	2g	4cc]	2ee
.	.	.	4b-	.
.	2d	4f	1a	1ff
.	.	4e	.	.
.	1B-	1d	.	.
.	.	.	2g	2dd
=38	=38	=38	=38	=38
2r	1A	2.a	0cc	2ee
2.A	.	.	.	4a
.	.	8g	.	4b
.	.	8f	.	.
.	2.a	2e	.	4cc
4A	.	.	.	4dd
2A	.	2c	.	[2ee
.	4g	.	.	.
=39	=39	=39	=39	=39
2B-	2f	1d	1b-	4ee]
.	.	.	.	4dd
2G	2g	.	.	1dd
2A	1e	2r	1a	.
2A	.	[2A	.	2cc#
=40	=40	=40	=40	=40
1D	[0d	4A]	1f#	[0dd
.	.	4A	.	.
.	.	2A	.	.
[1G	.	1B-	2.g	.
.	.	.	4a	.
=41	=41	=41	=41	=41
2G]	0d]	2G	2b-	0dd]
2F#	.	2A	2a	.
1G	.	1B-	1g	.
=42	=42	=42	=42	=42
[0D	[0d	[0A	[0f#	[0dd
=43	=43	=43	=43	=43
0D]	0d]	0A]	0f#]	0dd]
*	*	*	*	*-
!! Pleni
*Ibass	*Itenor	*Itenor	*Icalto
!Bassus	!Tenor 2	!Tenor 1	!Altus
*clefF4	*clefGv2	*clefGv2	*clefG2
*k[]	*k[]	*k[]	*k[]
*D:dor	*D:dor	*D:dor	*D:dor
*M4/2	*M4/2	*M4/2	*M4/2
=44	=44	=44	=44
0r	0r	1e	0r
.	.	2d	.
.	.	2c	.
=45	=45	=45	=45
0r	0r	1f	0r
.	.	2e	.
.	.	[2a	.
=46	=46	=46	=46
0r	1e	2a]	0r
.	.	2g	.
.	2d	2f	.
.	2c	[2e	.
=47	=47	=47	=47
1r	1f	4e]	0r
.	.	4d	.
.	.	1d	.
1A	1e	.	.
.	.	2c	.
=48	=48	=48	=48
2G	2r	2e	0r
2F	1a	2.f	.
1B-	.	.	.
.	.	4e	.
.	2g	[2d	.
=49	=49	=49	=49
2A	2f	2d]	0r
2A	2.e	2c	.
2G	.	2B-	.
.	4d	.	.
2F	[2d	2A	.
=50	=50	=50	=50
1E	2d]	2G	1r
.	2c#	2.g	.
1D	2.d	.	1a
.	.	4f	.
.	.	2f	.
.	4A	.	.
=51	=51	=51	=51
1r	2c	2e	2g
.	2d	2a	2f
2r	1G	1g	1b-
[2d	.	.	.
=52	=52	=52	=52
2d]	1A	2r	1a
2c	.	2e	.
2B-	1r	2d	2r
2A	.	2c	[2cc
=53	=53	=53	=53
1d	1r	1f	2cc]
.	.	.	2b-
1c	2r	1e	2a
.	2e	.	2g
=54	=54	=54	=54
0r	2d	1a	2f
.	2c	.	2.e
.	1f	1a	.
.	.	.	4d
.	.	.	[2d
=55	=55	=55	=55
2r	2.e	1A	2d]
2A	.	.	2c
.	4d	.	.
2G	2e	1r	2B-
2F	[2f	.	2A
=56	=56	=56	=56
1B-	4f]	1r	4d
.	4e	.	4e
.	1d	.	4f
.	.	.	4g
1A	.	1e	1a
.	2c	.	.
=57	=57	=57	=57
2D	2f	2d	[0a
2A	2.e	2c	.
2F	.	1f	.
.	4d	.	.
4E	[2d	.	.
4D	.	.	.
=58	=58	=58	=58
1A	2d]	2e	1a]
.	2c	2e	.
1D	1f	2.d	2r
.	.	.	[2a
.	.	4c	.
=59	=59	=59	=59
2r	1d	1B-	2a]
1d	.	.	2g
.	2r	1A	2f
2c	2a	.	2e
=60	=60	=60	=60
2B-	2g	2r	2d
2A	2f	1f	2c
1G	1g	.	2d
.	.	2e	2e
=61	=61	=61	=61
1F	1a	2d	2f
.	.	2c	1a
1r	2r	1B-	.
.	[2d	.	2g
=62	=62	=62	=62
1r	2d]	1A	2f
.	2c	.	2e
2r	2.f	1r	2.d
[2B-	.	.	.
.	4e	.	4e
=63	=63	=63	=63
2B-]	2d	0r	1f
2A	2c	.	.
2G	2B-	.	2e
2F	2A	.	2d
=64	=64	=64	=64
1E	2B	2r	2.g
.	2c#	1g	.
.	.	.	4a
1D	1d	.	2b-
.	.	2f	2a
=65	=65	=65	=65
0r	1G	2e	2g
.	.	1d	2f
.	1A	.	1e
.	.	2c	.
=66	=66	=66	=66
2r	2.a	2.f	4d
.	.	.	4e
1d	.	.	4f
.	4g	4e	4g
.	2f	2d	1a
2c	2e	2e	.
=67	=67	=67	=67
2B-	2d	1f	1r
2A	1f	.	.
1G	.	1g	2r
.	2e	.	[2b-
=68	=68	=68	=68
2F	1f	0r	2b-]
1f	.	.	2a
.	1c	.	1g
2e	.	.	.
=69	=69	=69	=69
2d	1r	2r	2f
2c	.	1a	2e
1B-	2r	.	1d
.	[2d	2g	.
=70	=70	=70	=70
1A	2d]	2f	1a
.	2c	2e	.
2r	1f	1d	2r
[2f	.	.	[2a
=71	=71	=71	=71
2f]	1g	1c	2a]
2e	.	.	2g
2d	1a	2r	2f
2c	.	[2a	2e
=72	=72	=72	=72
1B-	2r	2a]	2f
.	1d	2g	2g
1A	.	2f	4a
.	.	.	4b
.	2c	2e	4cc
.	.	.	4a
=73	=73	=73	=73
1D	1f	2.d	2b
.	.	.	1a
.	.	4c	.
1E	2.e	2B	.
.	.	[2e	2g#
.	4d	.	.
=74	=74	=74	=74
1.A	2c	2e]	1a
.	2B	2d	.
.	2A	2c	1e
2G	2B	2B	.
=75	=75	=75	=75
2F	2.c	1A	2f
2E	.	.	2g
.	8d	.	.
.	8e	.	.
1D	1f	1d	1a
=76	=76	=76	=76
[0A	[0e	[0c#	[0a
=77	=77	=77	=77
0A]	0e]	0c#]	0a]
*-	*-	*-	*-
!! Hosanna
**kern	**kern	**kern	**kern	**kern
*Ibass	*Itenor	*Itenor	*Icalto	*Icant
!Bassus	!Tenor 2	!Tenor 1	!Altus	!Cantus
*clefF4	*clefGv2	*clefGv2	*clefG2	*clefG2
*k[]	*k[]	*k[]	*k[]	*k[]
*D:dor	*D:dor	*D:dor	*D:dor	*D:dor
*M3/2	*M3/2	*M3/2	*M3/2	*M3/2
=78	=78	=78	=78	=78
1r	1r	1r	1r	2a
.	.	.	.	2a
2r	2r	2r	2r	2a
=79	=79	=79	=79	=79
1r	1r	1r	2d	2.dd
.	.	.	2d	.
.	.	.	.	4ee
2r	2r	2r	2d	2ff
=80	=80	=80	=80	=80
1r	2A	1r	2.a	2ee
.	2A	.	.	2cc
.	.	.	4b	.
2r	2A	2r	2cc	2ee
=81	=81	=81	=81	=81
1r	2.d	1r	2b-	2dd
.	.	.	4a	2.ff
.	4e	.	4g	.
2r	2f	2r	2a	.
.	.	.	.	4ee
=82	=82	=82	=82	=82
1r	2g	2r	2b-	1dd
.	1e	2A	1a	.
2r	.	2A	.	2cc#
=83	=83	=83	=83	=83
2D	2d	2A	2.f	1.dd
2D	2.f	2.d	.	.
.	.	.	4g	.
2D	.	.	[2a	.
.	8e	4e	.	.
.	8d	.	.	.
=84	=84	=84	=84	=84
2.A	2.c	2f	4a]	2r
.	.	.	4b	.
.	.	1e	2.cc	2a
4B	4d	.	.	.
2c	2e	.	.	2a
.	.	.	4b-	.
=85	=85	=85	=85	=85
2d	1r	2f	1a	2a
1B-	.	1d	.	1dd
.	2r	.	2g	.
=86	=86	=86	=86	=86
2A	2A	2.e	[1.a	2.cc
2r	2A	.	.	.
.	.	4d	.	4dd
2r	2A	2c	.	2ee
=87	=87	=87	=87	=87
2D	2.d	4d	1.a]	2ff
.	.	4e	.	.
2D	.	4f	.	1dd
.	4e	4g	.	.
2D	2f	[2a	.	.
=88	=88	=88	=88	=88
2.A	2e	4a]	1r	2.cc
.	.	4g	.	.
.	2a	2f	.	.
4B	.	.	.	4dd
2c	2g	2e	2r	2ee
=89	=89	=89	=89	=89
2d	1f	2a	2d	2ff
1B-	.	2r	2d	1dd
.	4e	2r	2d	.
.	4d	.	.	.
=90	=90	=90	=90	=90
1A	1e	1r	2.a	2cc
.	.	.	.	2.a
.	.	.	4b	.
2A	2c	2r	2cc	.
.	.	.	.	4b
=91	=91	=91	=91	=91
2.F	1c	2A	2a	2cc
.	.	2A	2cc	2a
4G	.	.	.	.
2A	2c	2A	2a	2ee
=92	=92	=92	=92	=92
1G	1B	2.d	2b	1gg
.	.	.	2g	.
.	.	4e	.	.
2D	2d	2f	[2a	2ff
=93	=93	=93	=93	=93
1A	2e	2c	4a]	1ee
.	.	.	4b	.
.	2c	2.e	2cc	.
2G	[2d	.	2b	2r
.	.	4d	.	.
=94	=94	=94	=94	=94
2F	2d]	1d	2a	2a
1E	1e	.	1g	2ee
.	.	2c#	.	2ee
=95	=95	=95	=95	=95
1D	1.A	1d	2r	1ff
.	.	.	2d	.
2r	.	2r	2a	2ee
=96	=96	=96	=96	=96
1r	1r	2r	2a	2cc
.	.	2r	1b-	2.dd
2r	2r	2G	.	.
.	.	.	.	4ee
=97	=97	=97	=97	=97
1r	1r	2d	2a	1ff
.	.	2d	2f	.
2r	2r	2e	2g	4ee
.	.	.	.	4dd
=98	=98	=98	=98	=98
1r	1r	1f	2a	2cc
.	.	.	2cc	2a
2r	2r	2g	2b	2dd
=99	=99	=99	=99	=99
1r	2A	1e	2.a	2cc
.	2e	.	.	1b
.	.	.	4g#	.
2r	2e	2r	2g#	.
=100	=100	=100	=100	=100
2r	1f	1r	1.a	2a
2D	.	.	.	2dd
2A	2e	2r	.	2cc
=101	=101	=101	=101	=101
2A	2c	1r	2a	2.ff
1B-	1d	.	2f	.
.	.	.	.	4ee
.	.	2r	2g	2dd
=102	=102	=102	=102	=102
2A	2e	2r	4a	2cc
.	.	.	4b	.
2F	2a	2A	4cc	2ff
.	.	.	4a	.
2G	2g	2e	2b	[2ee
=103	=103	=103	=103	=103
2A	2c	2e	1.a	2ee]
1D	1d	1f	.	2dd
.	.	.	.	2r
=104	=104	=104	=104	=104
2.A	2.c	2e	1r	2a
.	.	2.a	.	2ee
4B	4d	.	.	.
2c	2e	.	2r	2ee
.	.	4g	.	.
=105	=105	=105	=105	=105
1d	1a	2.f	2r	1ff
.	.	.	2d	.
.	.	4d	.	.
2c#	2r	2e	2a	2ee
=106	=106	=106	=106	=106
2d	1r	2f	2a	2.dd
1G	.	1g	1b-	.
.	.	.	.	4cc
.	2r	.	.	4dd
.	.	.	.	4ee
=107	=107	=107	=107	=107
1d	1r	2f	2a	1ff
.	.	2d	2f	.
2c	2r	2e	2g	2ee
=108	=108	=108	=108	=108
2F	2A	1f	1a	2cc
1B-	2d	.	.	1dd
.	2d	2d	2g	.
=109	=109	=109	=109	=109
1A	2f	1r	4a	2cc
.	.	.	4b	.
.	4e	.	4cc	2a
.	4f	.	4a	.
2r	4g	2r	2b	2ee
.	4e	.	.	.
=110	=110	=110	=110	=110
1r	1a	2A	2cc	1ee
.	.	2e	1b	.
2r	2g#	2e	.	2ee
=111	=111	=111	=111	=111
2r	2a	1f	[1.a	2cc
2D	2d	.	.	4a
.	.	.	.	4b
2A	2c	2e	.	4cc
.	.	.	.	4dd
=112	=112	=112	=112	=112
2A	2A	2c	2a]	2ee
1B-	2f	1d	2r	1dd
.	2g	.	2r	.
=113	=113	=113	=113	=113
2A	1a	2e	1r	2.cc
2F	.	2f	.	.
.	.	.	.	4a
[2G	[2g	[2d	2r	4b
.	.	.	.	4cc
=114	=114	=114	=114	=114
2G]	4g]	2d]	2d	1dd
.	4f	.	.	.
1A	1e	2r	2a	.
.	.	2e	2a	2cc#
=115	=115	=115	=115	=115
2D	[1.d	2.f	2b-	[1.dd
2.d	.	.	2a	.
.	.	4e	.	.
.	.	[2d	[2f	.
4c	.	.	.	.
=116	=116	=116	=116	=116
4B-	1.d]	4d]	2f]	1.dd]
4A	.	4c	.	.
1G	.	4B-	2g	.
.	.	4A	.	.
.	.	2G	2b-	.
=117	=117	=117	=117	=117
2F#	1.d	2A	2a	1.dd
1G	.	1B-	1g	.
=118	=118	=118	=118	=118
[1.D	[1.d	[1.A	[1.f#	[1.dd
=119	=119	=119	=119	=119
1.D]	1.d]	1.A]	1.f#]	1.dd]
==	==	==	==	==
*-	*-	*-	*-	*-
!!!CDT: 1525/^1526/-1594/2/2
!!!OCY: Italia
!!!AGN: Mass (Parody)
!!!AST: renaissance, vocal
!!!ASW: Motet 1559 (Maillard)
!!!PWK: Masses, Book 4
!!!RNB: Cadence finals: A
!!!YOR: Le Opere Complete, v. 10, p. 79
!!!YOO: Rome, Italy: Fratelli Scalera
!!!END: 1992//
!!!EED: John Miller
!!!YEC: Copyright 2000, John Miller
!!!YEN: United States of America
!!!YEM: Rights to all derivative electronic formats reserved.
!!!YEM: Refer to licensing agreement for further details.
!!!YEM: This file must be accompanied by the licensing agreement.
!!!YEM: A copy of the licensing agreement may be found at http://www.music-cog.ohio-state.edu/HumdrumDatabases/Palestrina/license.txt
!!!EMD: converted to Humdrum by Bret Aarden
